!!!COM: Bach, Johann Sebastian
!!!OTA: Das wohltemperirte Clavier
!!!OPR: Das wohltemperierte Klavier
!!!OTL: Fuga 13, Vol. 2
!!!XEN: The Well-Tempered Clavier, Volume 2, Fugue 13.
!!!ONB: F-sharp major, 3-part
!!!SCT: BWV 882b
!!!YEC: Copyright 1994, David Huron
!!!YEM: Rights to all derivative electronic formats reserved.
**kern	**kern	**kern
*staff2	*staff1	*staff1
*clefF4	*clefG2	*clefG2
*k[f#c#g#d#a#e#]	*k[f#c#g#d#a#e#]	*k[f#c#g#d#a#e#]
*M2/2	*M2/2	*M2/2
*F#:	*F#:	*F#:
*MM152	*MM152	*MM152
2r	4.e#T	2r
.	16d#	.
.	16e#	.
=1	=1	=1
1r	4f#	1r
.	4r	.
.	4c#	.
.	4d#	.
=2	=2	=2
1r	4.en	1r
.	16d#	.
.	16c#	.
.	8B	.
.	8A#	.
.	8B	.
.	8c#	.
=3	=3	=3
1r	8d#	1r
.	8e#	.
.	8f#	.
.	8d#	.
.	4g#	.
.	4B	.
=4	=4	=4
1r	4BM	2r
.	8A#	.
.	8G#	.
.	4F#	4.b#T
.	4f#	.
.	.	16a#
.	.	16b#
=5	=5	=5
1r	4f#	4cc#
.	4e#	4r
.	4r	4g#
.	4en	4a#
=6	=6	=6
1r	4en	4.b
.	4d#	.
.	.	16a#
.	.	16g#
.	4r	8f#
.	.	8e#
.	8d#	8f#
.	8e#	8g#
=7	=7	=7
1r	4f#	8a#
.	.	8b#
.	4A#	8cc#
.	.	8a#
.	2B#T	4dd#
.	.	4f#
=8	=8	=8
2r	4c#	4f#
.	4G#	8e#
.	.	8d#
4.E#T	[2c#	4c#
.	.	4b
16D#	.	.
16E#	.	.
=9	=9	=9
4F#	4.c#]	4b
4r	.	4a#
.	8d#	.
4C#	4en	4r
4D#	4f#	4an
=10	=10	=10
4.En	4.B	4an
.	.	4g#
16D#	8c#	.
16C#	.	.
8BB	4d#	4r
8AA#	.	.
8BB	4e#	8g#
8C#	.	8a#
=11	=11	=11
8D#	4f#	4b
8E#	.	.
8F#	2B	4d#
8D#	.	.
4G#	.	2e#
4BB	8A#	.
.	8G#	.
=12	=12	=12
4BB	2F#	8f#
.	.	8e#
8AA#	.	8f#
8GG#	.	8g#
4FF#	4r	8a#
.	.	8g#
[4F#	4c#	8a#
.	.	8f#
=13	=13	=13
4F#]	2B#	4d#
8E#	.	[4g#
8D#	.	.
4E#	2c##	8g#]
.	.	8f#
4AA#	.	8g#
.	.	8e#
=14	=14	=14
4DD#	2d#	8f#
.	.	8a#
[4D#	.	8b#
.	.	8cc##
8D#]	4r	8dd#
8C##	.	8ee#
8D#	[4bn	8ff#
8BB	.	8dd#
=15	=15	=15
4GG#	4b]	2ee#
[4C#	8a#	.
.	8g#	.
8C#]	4a#	2ff##
8BB	.	.
8C#	[4dd#	.
8AA#	.	.
=16	=16	=16
8BB	8dd#]	4gg#
8D#	8cc#	.
8E#	8b	8dd#
8F##	8a#	8cc#
4G#	8g#	4b
.	8f##	.
4c#	8g#	[4een
.	8en	.
=17	=17	=17
2A#	4c#	4ee]
.	[4f#	8dd#
.	.	8cc#
2B#	8f#]	4dd#
.	8e#	.
.	8f#	[4gg#
.	8d#	.
=18	=18	=18
4c#	4e#	8gg#]
.	.	8ff#
4Bn	4c#	8ee#
.	.	8dd#
[2A#	4f#	8cc#
.	.	8b
.	4en	8cc#
.	.	8a#
=19	=19	=19
4A#]	2d#	4f#
8G#	.	[4b
8F#	.	.
4G#	2e#	8b]
.	.	8a#
4c#	.	8b
.	.	8g#
=20	=20	=20
4F#	4f#	8a#
.	.	8b
8E#	4r	8cc#
8D#	.	8dd#
4C#	2g#	8ee#
.	.	16ff#
.	.	16ee#
4B	.	8dd#
.	.	8ee#
=21	=21	=21
4B	4.c#	4ff#
4A#	.	4r
.	8c#	.
4r	2f#	4cc#
4An	.	4dd#
=22	=22	=22
4An	4.B	4.een
4G#	.	.
.	8B	16dd#
.	.	16cc#
4r	2en	8b
.	.	8a#
8G#	.	8b
8A	.	8cc#
=23	=23	=23
4B	2d#	8dd#
.	.	8ee#
4D#	.	8ff#
.	.	8dd#
2E#	[2c#	4gg#
.	.	4b
=24	=24	=24
8F#	2c#]	4bM
8E#	.	.
8F#	.	4a#
8G#	.	.
8A#	4r	4ff#
8F#	.	.
8D#	4f#	4a#
8F#	.	.
=25	=25	=25
8B	4f#	4a#M
8A#	.	.
8B	4e#	4g#
8G#	.	.
8c##	4r	4ee#
8B#	.	.
8c##	4e#	4g#
8A#	.	.
=26	=26	=26
8d#	4e#	4g#M
8A#	.	.
8D#	4d#	4f#
8C##	.	.
8D#	4b	4r
8BB	.	.
8GG#	4d#	4b
8BB	.	.
=27	=27	=27
8En	4d#	4b
8D#	.	.
8E	4c#	4a#
8C#	.	.
8F##	4a#	4r
8E#	.	.
8F##	4c#	4a#
8D#	.	.
=28	=28	=28
8G#	4c#	4a#
8F##	.	.
8G#	4B#	4g#
8A#	.	.
8B#	4r	4gg#
8A#	.	.
8B#	4g#	4b#
8G#	.	.
=29	=29	=29
8c#	4g#	4b#M
8B#	.	.
8c#	4f##	4a#
8A#	.	.
8d##	4r	4ff##
8c##	.	.
8d##	4f##	4a#
8B#	.	.
=30	=30	=30
8e#	4f##	4a#M
8B#	.	.
8E#	4e#	4g#
8D##	.	.
8E#	4cc#	4r
8C#	.	.
8AA#	4e#	4cc#
8C#	.	.
=31	=31	=31
8F#	4e#	4cc#
8E#	.	.
8F#	4d#	4b#
8D#	.	.
8G##	4b#	4r
8F##	.	.
8G##	4d#	4b#
8E#	.	.
=32	=32	=32
8A#	4d#	4b#
8G##	.	.
8A#	4c#	4a#
8B#	.	.
4.B#T	4r	8dd#
.	.	8cc#
.	4f#	4dd#
16A#	.	.
16B#	.	.
=33	=33	=33
4c#	4f#	4.g#
4r	4e#	.
.	.	8a#
4G#	4r	4bn
4A#	4en	4cc#
=34	=34	=34
4.B	4en	4.f#
.	4d#	.
16A#	.	8g#
16G#	.	.
8F#	4r	8a#
8E#	.	8g#
8F#	4d#	8a#
8G#	.	8b#
=35	=35	=35
8A#	4c#	4cc#
8B#	.	.
8c#	2f#	4a#
8A#	.	.
4d#	.	2b#
4F#	8e#	.
.	8d#	.
=36	=36	=36
4F#	8g#	4cc#
.	8f#	.
8E#	8g#	4r
8D#	8bn	.
8C#	4.e#T	2r
8E#	.	.
8G#	.	.
8B	16d#	.
.	16e#	.
=37	=37	=37
4BM	4f#	4r
4A#	4r	8cc#
.	.	8dd#
4r	4c#	8een
.	.	8dd#
4An	4d#	8ff#
.	.	8cc#
=38	=38	=38
4An	4.en	8b
.	.	8a#
4G#	.	8b
.	16d#	8cc#
.	16c#	.
4r	8B	8dd#
.	8A#	8cc#
8G#	8B	8een
8A#	8c#	8g#
=39	=39	=39
4B	8d#	4f#
.	8e#	.
4D#	8f#	[4b
.	8d#	.
2E#	4g#	8b]
.	.	8a#
.	4B	8g#
.	.	8gg#
=40	=40	=40
4.F#	4BM	8cc#
.	.	8ee#
.	4A#	8ff#
8F#	.	8aa#
8E#	4r	4.cc##T
8D#	.	.
8E#	4g#	.
8AA#	.	16b#
.	.	16cc##
=41	=41	=41
8D#	4g#	4dd#
8C##	.	.
8D#	4f##	4r
8E#	.	.
8F#	4r	4a#
8D#	.	.
8GG##	4f#	4b#
8G##	.	.
=42	=42	=42
8A#	4f#	4.cc#
8G##	.	.
8A#	4e#	.
8B#	.	16b#
.	.	16a#
4.c#	4r	8g#
.	.	8f##
.	8e#	8g#
16B#	8f##	8a#
16A#	.	.
=43	=43	=43
4.G#	4g#	8b#
.	.	8cc##
.	4B#	8dd#
8F#	.	8b#
8E#	2c##	4ee#
8D#	.	.
8E#	.	4g#
8A#	.	.
=44	=44	=44
2D#	8d#	4g#M
.	8A#	.
.	8B#	8f#
.	8c##	8e#
4r	8d#	4f#
.	8c##	.
[4BB	8d#	4g#
.	8Bn	.
=45	=45	=45
4BB]	4G#	2e#
8AA#	[4c#	.
8GG#	.	.
4AA#	8c#]	2f##
.	8B	.
4DD#	8c#	.
.	8A#	.
=46	=46	=46
4GG#	8B	2g#
.	8d#	.
[4G#	8e#	.
.	8f##	.
8G#]	8g#	4r
8F##	8a#	.
8G#	8b	[4ee#
8En	8g#	.
=47	=47	=47
4C#	2a#	4ee#]
[4F#	.	8dd#
.	.	8cc#
8F#]	2b#	4dd#
8E#	.	.
8F#	.	[4gg#
8D#	.	.
=48	=48	=48
8E#	4cc#	8gg#]
8G#	.	8ff#
8A#	8g#	8ee#
8B#	8f#	8dd#
2c#	4e#	8cc#
.	.	8b#
.	[4a#	8cc#
.	.	8ee#
=49	=49	=49
2d#	4a#]	8ff#
.	.	8bn
.	8g#	[4bb
.	8f#	.
2e#	4g#	8bb]
.	.	8aa#
.	[4cc#	8bb
.	.	8gg#
=50	=50	=50
4f#	8cc#]	4aa#
.	8b	.
4en	8a#	4ff#
.	8g#	.
[2d#	8f#	4.bb
.	8en	.
.	8f#	.
.	8a#	8ff#
=51	=51	=51
4d#]	8b	2gg#
.	8en	.
8c#	[4een	.
8B	.	.
4c#	8ee]	2aa#
.	8dd#	.
4F#	8een	.
.	8cc#	.
=52	=52	=52
2B	8dd#	4bb
.	8b	.
.	8f#	8dd#
.	8g#	8b
2r	4.a#T	8cc#
.	.	8dd#
.	.	4een
.	16g#	.
.	16a#	.
=53	=53	=53
8r	4b	4een
8A#	.	.
8B	4r	4dd#
8c#	.	.
8d#	4f#	4r
8B	.	.
8E#	4g#	4ddn
8e#	.	.
=54	=54	=54
8f#	4.an	4ddn
8E#	.	.
8F#	.	4cc#
8G#	16g#	.
.	16f#	.
4.An	8en	4r
.	8d#	.
.	8e	8cc#
16G#	8f#	8dd#
16F#	.	.
=55	=55	=55
4c#	8g#	[2een
.	8a#	.
4G#	8b	.
.	8g#	.
4A#	4cc#	8ee]
.	.	8b
4F#	4en	8a#
.	.	[8cc#
=56	=56	=56
4B	4en	8cc#]
.	.	8f#
8BB	4d#	8b
8C#	.	8a#
8D#	4b	4b
8BB	.	.
8GG#	4d#	4b
8BB	.	.
=57	=57	=57
8En	4d#	4b
8D#	.	.
8E	4c#	4a#
8C#	.	.
8F##	4a#	4r
8E#	.	.
8F##	4c#	4a#
8D#	.	.
=58	=58	=58
8G#	4c#	4a#
8F##	.	.
8G#	4B	4g#
8F##	.	.
8G#	4r	4een
8En	.	.
8C#	4en	4g#
8E	.	.
=59	=59	=59
8An	4en	4g#
8G#	.	.
8A	4d#	4f#
8F#	.	.
8B#	4r	4dd#
8A#	.	.
8B#	4d#	4f#
8G#	.	.
=60	=60	=60
8c#	4d#	4f#
8G#	.	.
8C#	4c#	4e#
8D#	.	.
8E#	4cc#	4r
8C#	.	.
8AA#	4e#	4cc#
8C#	.	.
=61	=61	=61
8F#	4e#	4cc#
8E#	.	.
8F#	4d#	4b#
8D#	.	.
8G##	4b#	4r
8F##	.	.
8G##	4d#	4b#
8E#	.	.
=62	=62	=62
8A#	4d#	4b#
8G##	.	.
8A#	4c#	4a#
8G##	.	.
8A#	4r	4ff#
8F#	.	.
8D#	4f#	4a#
8F#	.	.
=63	=63	=63
8Bn	4f#	4a#
8A#	.	.
8B	4e#	4g#
8G#	.	.
8c##	4r	4ee#
8B#	.	.
8c##	4e#	4g#
8A#	.	.
=64	=64	=64
8d#	4e#	4g#
8A#	.	.
8D#	4d#	4f#
8E#	.	.
4.E#T	8g#	4r
.	8f#	.
.	4g#	4b
16D#	.	.
16E#	.	.
=65	=65	=65
4F#	4.c#	4b
4r	.	4a#
.	8d#	.
4C#	4en	4r
4D#	4f#	4an
=66	=66	=66
4.En	4.B	4an
.	.	4g#
16D#	8c#	.
16C#	.	.
8BB	8d#	4r
8AA#	8c#	.
8BB	8d#	4g#
8C#	8e#	.
=67	=67	=67
8D#	4f#	4f#
8E#	.	.
8F#	4d#	2b
8D#	.	.
4G#	2e#	.
4BB	.	8a#
.	.	8g#
=68	=68	=68
4BB	8f#	4f#
.	8e#	.
4AA#	8f#	4r
.	8a#	.
4A#	8cc#	2r
.	8a#	.
4C#	8f#	.
.	8en	.
=69	=69	=69
4C#	8d#	1r
.	8c#	.
4BB	8d#	.
.	8f#	.
4B	8g#	.
.	8a#	.
4D#	8b	.
.	8f#	.
=70	=70	=70
4D#	8e#	1r
.	8d#	.
8C#	8e#	.
8D#	8g#	.
4.D#T	8b#	.
.	16cc#	.
.	16b#	.
.	8a#	.
16C#	8b#	.
16D#	.	.
=71	=71	=71
8E#	4cc#	1r
8G#	.	.
8A#	4r	.
8B	.	.
8c#	4g#	.
8En	.	.
8D#	4a#	.
8C#	.	.
=72	=72	=72
8D#	4.bn	1r
8F#	.	.
8G#	.	.
8A#	16a#	.
.	16g#	.
8B	8f#	.
16c#	8e#	.
16B	.	.
8A#	8f#	.
8B	8g#	.
=73	=73	=73
8c#	8a#	1r
8d#	8b#	.
8e#	8cc#	.
8f#	8a#	.
8e#	4dd#	.
8d#	.	.
8c#	4f#	.
8B#	.	.
=74	=74	=74
8c#	4f#M	1r
8C#	.	.
8c#	4e#	.
8Bn	.	.
8A#	4cc#	.
8B	.	.
8c#	4en	.
8A#	.	.
=75	=75	=75
8B	4enM	1r
8BB	.	.
8B	4d#	.
8A#	.	.
8G#	4b	.
8A#	.	.
8B	4d#	.
8G#	.	.
=76	=76	=76
8E#	4d#M	2r
8F#	.	.
8G#	4c#	.
8E#	.	.
8C#	4r	4.ee#T
8E#	.	.
8G#	4b	.
8c#	.	16dd#
.	.	16ee#
=77	=77	=77
8F#	4b	4ff#
8E#	.	.
8F#	4a#	4r
8G#	.	.
8An	4r	4cc#
8F#	.	.
8BB#	4an	4dd#
8B#	.	.
=78	=78	=78
8c#	4an	4.een
8B#	.	.
8c#	4g#	.
8d#	.	16dd#
.	.	16cc#
8en	4r	8b
8En	.	8a#
8D#	8g#	8b
8C#	8a#	8cc#
=79	=79	=79
8BB	4b	8dd#
8C#	.	8ee#
8BB	4r	8ff#
8AA#	.	8dd#
8GG#	2ee#	4gg#
8FF#	.	.
8GG#	.	4b
8C#	.	.
=80	=80	=80
8FF#	2ff#	4b
8EE#	.	.
8FF#	.	4a#
8AA#	.	.
8C#	4r	4aa#
8AA#	.	.
8F#	4a#	4cc#
8E#	.	.
=81	=81	=81
8D#	4a#	4cc#M
8C#	.	.
8D#	4b	4b
8F#	.	.
8G#	4r	4bb
8D#	.	.
8B	4b	4dd#
8G#	.	.
=82	=82	=82
8E#	4b#	4dd#
8D#	.	.
8E#	4cc#	8cc#
8G#	.	8dd#
8c#	4r	8ee#
8G#	.	8ff#
8e#	4bn	8gg#
8c#	.	8ee#
=83	=83	=83
4d#	4.a#	4.ff#
4B	.	.
.	8b	8gg#
4c#	4.g#	4.ee#
4C#	.	.
.	8a#	8ff#
=84	=84	=84
2FF#;	2a#;	2ff#;
==	==	==
*-	*-	*-
!!!CDT: 1685/3/-1750/7/28
!!!OCY: Deutschland
!!!PPP: Leipzig
!!!ODT: 1738//-1742//
!!!PDT: 1739//-1742//
!!!AFR: fuga; fugue
!!!AST: polyphony
!!!AMT: simple duple
!!!SCA: Bach-Werke-Verzeichnis
!!!YOR: Bach Gesellschaft
!!!SMS: British Library, various
!!!AIN: cemba; clavi
!!!EEV: 1.0
!!!RDT: 1986 December 6
!!!YER: 1994 August 10
!!!EFL: 37/48
!!!VTS: 118488558
